X: 23161
T: Le Gadeliderot
R: reel
M: 4/4
K: Dmajor
|:"D"DFAd "G"BGBG|"D"ABAG F2 D>D|"A" EDEF GFGA|"Em(G)" BAGF "A"EGFE|
"D"DFAd "G"BGBG|"D"ABAG F2(3ABc|"G" defg "A"edcB|1 "A"cdef "D"dBAF:|2 "A"cdef "D"dcde||
|:"D"fdAe fdAf|"A"edef gece|"D" fdAe fdAf|"A" edcB (3ABA GA|
"G"Bdgd "A"ceae|"Bm"dfbf "G"g2 fe|"Em" defg "A"edcB|1 "A" cdef "D"dcde:|2 "A"cdef "D"dBAF||

